public/images/poses-lg/Chaturanga.svg

<svg width="800" height="800" fill="none" xmlns="http://www.w3.org/2000/svg"><g clip-path="url(#a)"><path d="m653.607 662.84 37.869 10.667-19.732 21.94c-15.295-3.898-34.165-2.267-48.815 1.125-14.652 3.385-33.249 17.819-44.213 27.774-10.965 9.955-29.72 12.841-38.439 7.602-8.72-5.242-11.339-10.201-30.817-11.317-19.479-1.121-55.307 0-55.307 0-3.078-8.476-1.775-26.151-.951-38.559.784-11.732 4.006-27.269 4.006-27.269 23.496 2.311 66.009 2.548 94.864 2.164 20.055-.266 42.654-10.028 58.542-8.129 7.414.888 22.561 6.768 30.769 10.121a79.993 79.993 0 0 0 12.224 3.881Z" fill="#fff" stroke="#000" stroke-width="5" stroke-miterlimit="10"/><path d="m653.607 662.84 37.869 10.667-19.732 21.94c-15.295-3.898-34.165-2.267-48.815 1.125-14.652 3.385-33.249 17.819-44.213 27.774-10.965 9.955-29.72 12.841-38.439 7.602-8.72-5.242-11.339-10.201-30.817-11.317-19.479-1.121-55.307 0-55.307 0-3.078-8.476-1.775-26.151-.951-38.559.784-11.732 4.006-27.269 4.006-27.269 23.496 2.311 66.009 2.548 94.864 2.164 20.055-.266 42.654-10.028 58.542-8.129 7.414.888 22.561 6.768 30.769 10.121a79.993 79.993 0 0 0 12.224 3.881Z" stroke="#000" stroke-width="5" stroke-miterlimit="10"/><path d="M615.066 649.702s-80.165-8.531-108.012-1.586c-12.107 7.04-4.333 100.822 5.909 137.321 1.539 5.492 6.52 9.297 12.225 9.297h48.583c5.228-1.282 5.627-6.764 1.862-8.016-8.562-2.837-22.252-4.824-39.167-5.766-2.555-.147-5.088-2.314-5.615-4.822-5.478-25.978-4.496-80.46-4.101-95.578a3.886 3.886 0 0 1 4.085-3.775l66.086 2.214" fill="#fff"/><path d="M615.066 649.702s-80.165-8.531-108.012-1.586c-12.107 7.04-4.333 100.822 5.909 137.321 1.539 5.492 6.52 9.297 12.225 9.297h48.583c5.228-1.282 5.627-6.764 1.862-8.016-8.562-2.837-22.252-4.824-39.167-5.766-2.555-.147-5.088-2.314-5.615-4.822-5.478-25.978-4.496-80.46-4.101-95.578a3.886 3.886 0 0 1 4.085-3.775l66.086 2.214" stroke="#000" stroke-width="5" stroke-miterlimit="10"/><path d="M615.066 649.702s-80.165-8.531-108.012-1.586c-12.107 7.04-4.333 100.822 5.909 137.321 1.539 5.492 6.52 9.297 12.225 9.297h48.583c5.228-1.282 5.627-6.764 1.862-8.016-8.562-2.837-22.252-4.824-39.167-5.766-2.555-.147-5.088-2.314-5.615-4.822-5.478-25.978-4.496-80.46-4.101-95.578a3.886 3.886 0 0 1 4.085-3.775l66.086 2.214" stroke="#000" stroke-width="5" stroke-miterlimit="10"/><path d="M457.209 654.801c-3.439 15.82-7.284 48.117-3.053 65.828 0 0-16.664 4.423-49.019 8.566-32.353 4.143-99.867 4.895-124.692 4.978-24.826.085-124.438-5.279-153.691-6.231-29.256-.95-69.607-.424-73.936 4.917-4.328 5.338-3.766 27.749-2.868 39.413.896 11.662 8.304 13.319 9.458 16.673 1.154 3.359-.77 4.58-7.791 4.786-7.023.207-17.505-3.102-21.161-20.091-3.654-16.985-7.728-46.178-7.04-53.965.692-7.785 10.426-8.226 18.318-9.62 7.891-1.395 64.174-11.26 84.927-15.217 20.751-3.954 53.962-11.263 71.258-12.839 17.295-1.576 53.9-2.662 79.274-6.825 25.374-4.159 54.143-19.102 66.569-24.493 12.428-5.39 33.471-11.884 52.309-10.587 18.841 1.296 39.675 11.129 46.424 12.526 6.749 1.394 14.714 2.181 14.714 2.181Z" fill="#fff" stroke="#000" stroke-width="5" stroke-miterlimit="10"/><path d="M457.209 654.801c-3.439 15.82-7.284 48.117-3.053 65.828 0 0-16.664 4.423-49.019 8.566-32.353 4.143-99.867 4.895-124.692 4.978-24.826.085-124.438-5.279-153.691-6.231-29.256-.95-69.607-.424-73.936 4.917-4.328 5.338-3.766 27.749-2.868 39.413.896 11.662 8.304 13.319 9.458 16.673 1.154 3.359-.77 4.58-7.791 4.786-7.023.207-17.505-3.102-21.161-20.091-3.654-16.985-7.728-46.178-7.04-53.965.692-7.785 10.426-8.226 18.318-9.62 7.891-1.395 64.174-11.26 84.927-15.217 20.751-3.954 53.962-11.263 71.258-12.839 17.295-1.576 53.9-2.662 79.274-6.825 25.374-4.159 54.143-19.102 66.569-24.493 12.428-5.39 33.471-11.884 52.309-10.587 18.841 1.296 39.675 11.129 46.424 12.526 6.749 1.394 14.714 2.181 14.714 2.181Z" stroke="#000" stroke-width="5" stroke-miterlimit="10"/><path d="M68.368 705.354c.079 9.614 4.223 23.169 4.223 23.169M604.44 704.794c-6.827-12.48-1.488-45.809 1.83-56.486M531.468 777.691c-3.827 1.626-11.562 9.653-13.707 14.631" stroke="#000" stroke-width="5" stroke-miterlimit="10"/><path d="M685.562 664.391c6.711-4.936 14.206-2.355 23.025-4.819 14.009-3.913 30.159 11.777 31.174 28.004 1.336 21.421-74.554 31.573-77.344 19.405-1.653-7.206 2.904-21.245 13.858-32.373 3.521-3.578 9.287-10.217 9.287-10.217Z" fill="#fff" stroke="#000" stroke-width="5" stroke-miterlimit="10"/><path d="M685.562 664.391c6.711-4.936 14.206-2.355 23.025-4.819 14.009-3.913 30.159 11.777 31.174 28.004 1.336 21.421-74.554 31.573-77.344 19.405-1.653-7.206 2.904-21.245 13.858-32.373 3.521-3.578 9.287-10.217 9.287-10.217Z" stroke="#000" stroke-width="5" stroke-miterlimit="10"/><path d="M731.961 697.539c-13.371 1.32-38.67-5.608-36.294-22.873 2.676-19.405-7.665-10.39-11.034-8.487-3.371 1.898-8.976 11.846-10.209 10.087-1.23-1.756 5.291-28.866 24.217-33.715 18.929-4.847 29.501-1.356 36.615 7.914 7.111 9.27 10.6 29.861 5.642 40.543-4.953 10.674-8.937 6.531-8.937 6.531Z" fill="#000" stroke="#000" stroke-width="5" stroke-miterlimit="10"/><path d="M737.576 652.043c6.103-8.46 25.166-20.856 31.961 14.011 5.585 28.644 12.524 22.072 23.706 42.635 8.991 16.53-.37 38.855-28.796 31.745-25.866-6.471-20.946-26.489-19.253-49.509 1.69-23.024-7.618-38.882-7.618-38.882Z" fill="#000" stroke="#000" stroke-width="5" stroke-miterlimit="10"/></g><defs><clipPath id="a"><path fill="#fff" d="M0 0h800v800H0z"/></clipPath></defs></svg>

<svg width="800" height="800" viewBox="0 0 800 800" fill="none" xmlns="http://www.w3.org/2000/svg">
<g clip-path="url(#clip0_298_12114)">
<path d="M653.607 662.84L691.476 673.507L671.744 695.447C656.449 691.549 637.579 693.18 622.929 696.572C608.277 699.957 589.68 714.391 578.716 724.346C567.751 734.301 548.996 737.187 540.277 731.948C531.557 726.706 528.938 721.747 509.46 720.631C489.981 719.51 454.153 720.631 454.153 720.631C451.075 712.155 452.378 694.48 453.202 682.072C453.986 670.34 457.208 654.803 457.208 654.803C480.704 657.114 523.217 657.351 552.072 656.967C572.127 656.701 594.726 646.939 610.614 648.838C618.028 649.726 633.175 655.606 641.383 658.959C645.343 660.581 649.435 661.871 653.607 662.84Z" fill="white" stroke="black" stroke-width="5" stroke-miterlimit="10"/>
<path d="M653.607 662.84L691.476 673.507L671.744 695.447C656.449 691.549 637.579 693.18 622.929 696.572C608.277 699.957 589.68 714.391 578.716 724.346C567.751 734.301 548.996 737.187 540.277 731.948C531.557 726.706 528.938 721.747 509.46 720.631C489.981 719.51 454.153 720.631 454.153 720.631C451.075 712.155 452.378 694.48 453.202 682.072C453.986 670.34 457.208 654.803 457.208 654.803C480.704 657.114 523.217 657.351 552.072 656.967C572.127 656.701 594.726 646.939 610.614 648.838C618.028 649.726 633.175 655.606 641.383 658.959C645.343 660.581 649.435 661.871 653.607 662.84Z" stroke="black" stroke-width="5" stroke-miterlimit="10"/>
<path d="M615.066 649.702C615.066 649.702 534.901 641.171 507.054 648.116C494.947 655.156 502.721 748.938 512.963 785.437C514.502 790.929 519.483 794.734 525.188 794.734H573.771C578.999 793.452 579.398 787.97 575.633 786.718C567.071 783.881 553.381 781.894 536.466 780.952C533.911 780.805 531.378 778.638 530.851 776.13C525.373 750.152 526.355 695.67 526.75 680.552C526.807 678.368 528.649 676.673 530.835 676.777L596.921 678.991" fill="white"/>
<path d="M615.066 649.702C615.066 649.702 534.901 641.171 507.054 648.116C494.947 655.156 502.721 748.938 512.963 785.437C514.502 790.929 519.483 794.734 525.188 794.734H573.771C578.999 793.452 579.398 787.97 575.633 786.718C567.071 783.881 553.381 781.894 536.466 780.952C533.911 780.805 531.378 778.638 530.851 776.13C525.373 750.152 526.355 695.67 526.75 680.552C526.807 678.368 528.649 676.673 530.835 676.777L596.921 678.991" stroke="black" stroke-width="5" stroke-miterlimit="10"/>
<path d="M615.066 649.702C615.066 649.702 534.901 641.171 507.054 648.116C494.947 655.156 502.721 748.938 512.963 785.437C514.502 790.929 519.483 794.734 525.188 794.734H573.771C578.999 793.452 579.398 787.97 575.633 786.718C567.071 783.881 553.381 781.894 536.466 780.952C533.911 780.805 531.378 778.638 530.851 776.13C525.373 750.152 526.355 695.67 526.75 680.552C526.807 678.368 528.649 676.673 530.835 676.777L596.921 678.991" stroke="black" stroke-width="5" stroke-miterlimit="10"/>
<path d="M457.209 654.801C453.77 670.621 449.925 702.918 454.156 720.629C454.156 720.629 437.492 725.052 405.137 729.195C372.784 733.338 305.27 734.09 280.445 734.173C255.619 734.258 156.007 728.894 126.754 727.942C97.4982 726.992 57.1467 727.518 52.8176 732.859C48.4895 738.197 49.0524 760.608 49.9502 772.272C50.8458 783.934 58.2538 785.591 59.4082 788.945C60.5616 792.304 58.6371 793.525 51.6169 793.731C44.5944 793.938 34.1119 790.629 30.4558 773.64C26.8019 756.655 22.7283 727.462 23.4157 719.675C24.1075 711.89 33.842 711.449 41.7336 710.055C49.6252 708.66 105.908 698.795 126.661 694.838C147.412 690.884 180.623 683.575 197.919 681.999C215.214 680.423 251.819 679.337 277.193 675.174C302.567 671.015 331.336 656.072 343.762 650.681C356.19 645.291 377.233 638.797 396.071 640.094C414.912 641.39 435.746 651.223 442.495 652.62C449.244 654.014 457.209 654.801 457.209 654.801Z" fill="white" stroke="black" stroke-width="5" stroke-miterlimit="10"/>
<path d="M457.209 654.801C453.77 670.621 449.925 702.918 454.156 720.629C454.156 720.629 437.492 725.052 405.137 729.195C372.784 733.338 305.27 734.09 280.445 734.173C255.619 734.258 156.007 728.894 126.754 727.942C97.4982 726.992 57.1467 727.518 52.8176 732.859C48.4895 738.197 49.0524 760.608 49.9502 772.272C50.8458 783.934 58.2538 785.591 59.4082 788.945C60.5616 792.304 58.6371 793.525 51.6169 793.731C44.5944 793.938 34.1119 790.629 30.4558 773.64C26.8019 756.655 22.7283 727.462 23.4157 719.675C24.1075 711.89 33.842 711.449 41.7336 710.055C49.6252 708.66 105.908 698.795 126.661 694.838C147.412 690.884 180.623 683.575 197.919 681.999C215.214 680.423 251.819 679.337 277.193 675.174C302.567 671.015 331.336 656.072 343.762 650.681C356.19 645.291 377.233 638.797 396.071 640.094C414.912 641.39 435.746 651.223 442.495 652.62C449.244 654.014 457.209 654.801 457.209 654.801Z" stroke="black" stroke-width="5" stroke-miterlimit="10"/>
<path d="M68.3684 705.354C68.4466 714.968 72.5907 728.523 72.5907 728.523" stroke="black" stroke-width="5" stroke-miterlimit="10"/>
<path d="M604.44 704.794C597.613 692.314 602.952 658.985 606.27 648.308" stroke="black" stroke-width="5" stroke-miterlimit="10"/>
<path d="M531.468 777.691C527.641 779.317 519.906 787.344 517.761 792.322" stroke="black" stroke-width="5" stroke-miterlimit="10"/>
<path d="M685.562 664.391C692.273 659.455 699.768 662.036 708.587 659.572C722.596 655.659 738.746 671.349 739.761 687.576C741.097 708.997 665.207 719.149 662.417 706.981C660.764 699.775 665.321 685.736 676.275 674.608C679.796 671.03 685.562 664.391 685.562 664.391Z" fill="white" stroke="black" stroke-width="5" stroke-miterlimit="10"/>
<path d="M685.562 664.391C692.273 659.455 699.768 662.036 708.587 659.572C722.596 655.659 738.746 671.349 739.761 687.576C741.097 708.997 665.207 719.149 662.417 706.981C660.764 699.775 665.321 685.736 676.275 674.608C679.796 671.03 685.562 664.391 685.562 664.391Z" stroke="black" stroke-width="5" stroke-miterlimit="10"/>
<path d="M731.961 697.539C718.59 698.859 693.291 691.931 695.667 674.666C698.343 655.261 688.002 664.276 684.633 666.179C681.262 668.077 675.657 678.025 674.424 676.266C673.194 674.51 679.715 647.4 698.641 642.551C717.57 637.704 728.142 641.195 735.256 650.465C742.367 659.735 745.856 680.326 740.898 691.008C735.945 701.682 731.961 697.539 731.961 697.539Z" fill="black" stroke="black" stroke-width="5" stroke-miterlimit="10"/>
<path d="M737.576 652.043C743.679 643.583 762.742 631.187 769.537 666.054C775.122 694.698 782.061 688.126 793.243 708.689C802.234 725.219 792.873 747.544 764.447 740.434C738.581 733.963 743.501 713.945 745.194 690.925C746.884 667.901 737.576 652.043 737.576 652.043Z" fill="black" stroke="black" stroke-width="5" stroke-miterlimit="10"/>
</g>
<defs>
<clipPath id="clip0_298_12114">
<rect width="800" height="800" fill="white"/>
</clipPath>
</defs>
</svg>
